!!! OTL: Berkowitz104
!!! Chapter: 1
!!! Section: I
!!! Page: 26
!!! Mode: 
!!! Encoder: DJB
**kern
*staff1
*I"Piano
*clefC3
*k[b-e-a-]
*c:
*M3/4
4g\
=1
4.c\
8d\
8e-\L
8f\J
=2
2g\
8f\L
8g\J
=3
2a-\
8b-\L
8a-\J
=4
2g\
4e-\
=5
8f\L
8e-\J
8d\L
8c\J
8Bn/L
8c/J
=6
4d\
4r
4G/
=7
4g\
4r
8f\L
8d\J
=8
4c\
2r
==
*-
